X: 20571
T: John Nee's
R: reel
M: 4/4
K: Adorian
|:eA A2 AcBA|GEDE G2(3Bcd|eA A2 (3Bcd eg|a2ge dged|
eA A2 AcBA|GEDE G2(3Bcd|e3a gedB|GdBG BA A2:|
|:c3d eg g2|eaaf g2ed|eA A2 (3Bcd eg|agge dged|
c3d eg g2|eaaf gedB|c3A GE E2|GABG BA A2:|

